app/img/_src/main/howwework/work-3.svg

<svg width="48" height="60" viewBox="0 0 48 60" fill="none" xmlns="http://www.w3.org/2000/svg">
<path d="M46.1484 19.613C46.6339 19.613 47.0273 19.2196 47.0273 18.7341V12.5977C47.0273 11.1438 45.8445 9.96094 44.3906 9.96094H43.5117V7.61719C43.5117 6.16336 42.3288 4.98047 40.875 4.98047H39.9961V2.63672C39.9961 1.18289 38.8132 0 37.3594 0H3.60938C2.15543 0 0.972656 1.18289 0.972656 2.63672V7.48418C0.972656 7.96969 1.36617 8.36309 1.85156 8.36309C2.33695 8.36309 2.73047 7.96969 2.73047 7.48418V2.63672C2.73047 2.15203 3.12469 1.75781 3.60938 1.75781H37.3594C37.8441 1.75781 38.2383 2.15203 38.2383 2.63672V47.4023C38.2383 47.887 37.8441 48.2812 37.3594 48.2812H3.60938C3.12469 48.2812 2.73047 47.887 2.73047 47.4023V11.2342C2.73047 10.7487 2.33695 10.3553 1.85156 10.3553C1.36617 10.3553 0.972656 10.7487 0.972656 11.2342V47.4023C0.972656 48.8562 2.15543 50.0391 3.60938 50.0391H4.48828V52.3828C4.48828 53.8366 5.67105 55.0195 7.125 55.0195H8.00391V57.3633C8.00391 58.8171 9.18668 60 10.6406 60H44.3906C45.8445 60 47.0273 58.8171 47.0273 57.3633V22.4624C47.0273 21.9769 46.6339 21.5835 46.1484 21.5835C45.6629 21.5835 45.2695 21.9769 45.2695 22.4624V57.3633C45.2695 57.848 44.8753 58.2422 44.3906 58.2422H10.6406C10.1559 58.2422 9.76172 57.848 9.76172 57.3633V55.0195H31.4844C31.9699 55.0195 32.3633 54.6261 32.3633 54.1406C32.3633 53.6551 31.9699 53.2617 31.4844 53.2617H7.125C6.64043 53.2617 6.24609 52.8675 6.24609 52.3828V50.0391H37.3594C38.8132 50.0391 39.9961 48.8562 39.9961 47.4023V6.73828H40.875C41.3597 6.73828 41.7539 7.1325 41.7539 7.61719V52.3828C41.7539 52.8675 41.3597 53.2617 40.875 53.2617H35.2126C34.7271 53.2617 34.3337 53.6551 34.3337 54.1406C34.3337 54.6261 34.7271 55.0195 35.2126 55.0195H40.875C42.3288 55.0195 43.5117 53.8366 43.5117 52.3828V11.7188H44.3906C44.8753 11.7188 45.2695 12.113 45.2695 12.5977V18.7341C45.2695 19.2196 45.6629 19.613 46.1484 19.613Z" fill="url(#paint0_linear)"/>
<path d="M6.89062 14.5312V20.625C6.89062 21.3681 7.4952 21.9726 8.23828 21.9726H14.332C15.0751 21.9726 15.6797 21.3681 15.6797 20.625V16.0926L17.4809 14.5551C17.85 14.24 17.8938 13.6853 17.5786 13.3161C17.2636 12.9469 16.7087 12.9032 16.3395 13.2183L15.528 13.9108C15.3032 13.4791 14.8515 13.1836 14.3319 13.1836H8.23816C7.4952 13.1836 6.89062 13.7882 6.89062 14.5312ZM8.64844 14.9414H13.9219V15.2821L12.1779 16.7708L11.3452 15.8687C11.016 15.5122 10.4599 15.4899 10.1032 15.819C9.74648 16.1483 9.72434 16.7042 10.0535 17.061L11.4598 18.5844C11.78 18.9313 12.3172 18.9633 12.6763 18.6567L13.922 17.5932V20.2148H8.64855V14.9414H8.64844Z" fill="url(#paint1_linear)"/>
<path d="M33.1992 14.5898H19.1367C18.6513 14.5898 18.2578 14.9832 18.2578 15.4688C18.2578 15.9543 18.6513 16.3477 19.1367 16.3477H33.1992C33.6847 16.3477 34.0781 15.9543 34.0781 15.4688C34.0781 14.9832 33.6847 14.5898 33.1992 14.5898Z" fill="url(#paint2_linear)"/>
<path d="M33.1992 18.3398H19.1367C18.6513 18.3398 18.2578 18.7332 18.2578 19.2188C18.2578 19.7043 18.6513 20.0977 19.1367 20.0977H33.1992C33.6847 20.0977 34.0781 19.7043 34.0781 19.2188C34.0781 18.7332 33.6847 18.3398 33.1992 18.3398Z" fill="url(#paint3_linear)"/>
<path d="M6.89062 31.9922C6.89062 32.7353 7.4952 33.3398 8.23828 33.3398H14.332C15.0751 33.3398 15.6797 32.7353 15.6797 31.9922V25.8984C15.6797 25.1554 15.0751 24.5508 14.332 24.5508H8.23828C7.4952 24.5508 6.89062 25.1554 6.89062 25.8984V31.9922ZM8.64844 26.3086H13.9219V31.582H8.64844V26.3086Z" fill="url(#paint4_linear)"/>
<path d="M33.1992 25.957H19.1367C18.6513 25.957 18.2578 26.3504 18.2578 26.8359C18.2578 27.3214 18.6513 27.7148 19.1367 27.7148H33.1992C33.6847 27.7148 34.0781 27.3214 34.0781 26.8359C34.0781 26.3504 33.6847 25.957 33.1992 25.957Z" fill="url(#paint5_linear)"/>
<path d="M33.1992 29.707H19.1367C18.6513 29.707 18.2578 30.1004 18.2578 30.5859C18.2578 31.0714 18.6513 31.4648 19.1367 31.4648H33.1992C33.6847 31.4648 34.0781 31.0714 34.0781 30.5859C34.0781 30.1004 33.6847 29.707 33.1992 29.707Z" fill="url(#paint6_linear)"/>
<path d="M6.89062 43.3594C6.89062 44.1025 7.4952 44.707 8.23828 44.707H14.332C15.0751 44.707 15.6797 44.1025 15.6797 43.3594V37.2656C15.6797 36.5225 15.0751 35.918 14.332 35.918H8.23828C7.4952 35.918 6.89062 36.5225 6.89062 37.2656V43.3594ZM8.64844 37.6758H13.9219V42.9492H8.64844V37.6758Z" fill="url(#paint7_linear)"/>
<path d="M33.1992 37.3242H19.1367C18.6513 37.3242 18.2578 37.7176 18.2578 38.2031C18.2578 38.6886 18.6513 39.082 19.1367 39.082H33.1992C33.6847 39.082 34.0781 38.6886 34.0781 38.2031C34.0781 37.7176 33.6847 37.3242 33.1992 37.3242Z" fill="url(#paint8_linear)"/>
<path d="M33.1992 41.0742H19.1367C18.6513 41.0742 18.2578 41.4676 18.2578 41.9531C18.2578 42.4386 18.6513 42.832 19.1367 42.832H33.1992C33.6847 42.832 34.0781 42.4386 34.0781 41.9531C34.0781 41.4676 33.6847 41.0742 33.1992 41.0742Z" fill="url(#paint9_linear)"/>
<path d="M28.7461 4.16016H12.5742C10.9588 4.16016 9.64453 5.47441 9.64453 7.08984C9.64453 8.70527 10.9588 10.0195 12.5742 10.0195H28.7461C30.3615 10.0195 31.6758 8.70527 31.6758 7.08984C31.6758 5.47441 30.3615 4.16016 28.7461 4.16016ZM28.7461 8.26172H12.5742C11.928 8.26172 11.4023 7.73602 11.4023 7.08984C11.4023 6.44367 11.928 5.91797 12.5742 5.91797H28.7461C29.3923 5.91797 29.918 6.44367 29.918 7.08984C29.918 7.73602 29.3923 8.26172 28.7461 8.26172Z" fill="url(#paint10_linear)"/>
<defs>
<linearGradient id="paint0_linear" x1="24" y1="0" x2="24" y2="60" gradientUnits="userSpaceOnUse">
<stop stop-color="#8888D3"/>
<stop offset="1" stop-color="#5E60A3"/>
</linearGradient>
<linearGradient id="paint1_linear" x1="12.3399" y1="13.0078" x2="12.3399" y2="21.9726" gradientUnits="userSpaceOnUse">
<stop stop-color="#8888D3"/>
<stop offset="1" stop-color="#5E60A3"/>
</linearGradient>
<linearGradient id="paint2_linear" x1="26.168" y1="14.5898" x2="26.168" y2="16.3477" gradientUnits="userSpaceOnUse">
<stop stop-color="#8888D3"/>
<stop offset="1" stop-color="#5E60A3"/>
</linearGradient>
<linearGradient id="paint3_linear" x1="26.168" y1="18.3398" x2="26.168" y2="20.0977" gradientUnits="userSpaceOnUse">
<stop stop-color="#8888D3"/>
<stop offset="1" stop-color="#5E60A3"/>
</linearGradient>
<linearGradient id="paint4_linear" x1="11.2852" y1="24.5508" x2="11.2852" y2="33.3398" gradientUnits="userSpaceOnUse">
<stop stop-color="#8888D3"/>
<stop offset="1" stop-color="#5E60A3"/>
</linearGradient>
<linearGradient id="paint5_linear" x1="26.168" y1="25.957" x2="26.168" y2="27.7148" gradientUnits="userSpaceOnUse">
<stop stop-color="#8888D3"/>
<stop offset="1" stop-color="#5E60A3"/>
</linearGradient>
<linearGradient id="paint6_linear" x1="26.168" y1="29.707" x2="26.168" y2="31.4648" gradientUnits="userSpaceOnUse">
<stop stop-color="#8888D3"/>
<stop offset="1" stop-color="#5E60A3"/>
</linearGradient>
<linearGradient id="paint7_linear" x1="11.2852" y1="35.918" x2="11.2852" y2="44.707" gradientUnits="userSpaceOnUse">
<stop stop-color="#8888D3"/>
<stop offset="1" stop-color="#5E60A3"/>
</linearGradient>
<linearGradient id="paint8_linear" x1="26.168" y1="37.3242" x2="26.168" y2="39.082" gradientUnits="userSpaceOnUse">
<stop stop-color="#8888D3"/>
<stop offset="1" stop-color="#5E60A3"/>
</linearGradient>
<linearGradient id="paint9_linear" x1="26.168" y1="41.0742" x2="26.168" y2="42.832" gradientUnits="userSpaceOnUse">
<stop stop-color="#8888D3"/>
<stop offset="1" stop-color="#5E60A3"/>
</linearGradient>
<linearGradient id="paint10_linear" x1="20.6602" y1="4.16016" x2="20.6602" y2="10.0195" gradientUnits="userSpaceOnUse">
<stop stop-color="#8888D3"/>
<stop offset="1" stop-color="#5E60A3"/>
</linearGradient>
</defs>
</svg>

<svg width="48" height="60" fill="none" xmlns="http://www.w3.org/2000/svg"><path d="M46.148 19.613a.879.879 0 00.88-.879v-6.136A2.64 2.64 0 0044.39 9.96h-.88V7.617a2.64 2.64 0 00-2.636-2.637h-.879V2.637A2.64 2.64 0 0037.36 0H3.61A2.64 2.64 0 00.973 2.637v4.847a.879.879 0 101.757 0V2.637a.88.88 0 01.88-.88h33.75a.88.88 0 01.878.88v44.765a.88.88 0 01-.879.88H3.61a.88.88 0 01-.879-.88V11.234a.879.879 0 10-1.757 0v36.168a2.64 2.64 0 002.636 2.637h.88v2.344a2.64 2.64 0 002.636 2.636h.879v2.344A2.64 2.64 0 0010.64 60h33.75a2.64 2.64 0 002.636-2.637v-34.9a.879.879 0 10-1.758 0v34.9a.88.88 0 01-.878.88H10.64a.88.88 0 01-.88-.88V55.02h21.723a.879.879 0 100-1.758H7.125a.88.88 0 01-.879-.88V50.04H37.36a2.64 2.64 0 002.637-2.637V6.738h.879a.88.88 0 01.879.88v44.765a.88.88 0 01-.879.879h-5.662a.879.879 0 100 1.758h5.662a2.64 2.64 0 002.637-2.637V11.719h.879a.88.88 0 01.879.879v6.136c0 .486.393.879.878.879z" fill="url(#paint0_linear)"/><path d="M6.89 14.531v6.094a1.35 1.35 0 001.348 1.348h6.094a1.35 1.35 0 001.348-1.348v-4.532l1.8-1.538a.879.879 0 10-1.14-1.337l-.812.693a1.349 1.349 0 00-1.196-.727H8.238a1.35 1.35 0 00-1.347 1.347zm1.758.41h5.274v.341l-1.744 1.489-.833-.902a.88.88 0 00-1.292 1.192l1.407 1.523a.879.879 0 001.216.073l1.246-1.064v2.622H8.649V14.94z" fill="url(#paint1_linear)"/><path d="M33.2 14.59H19.136a.879.879 0 100 1.758h14.062a.879.879 0 100-1.758z" fill="url(#paint2_linear)"/><path d="M33.2 18.34H19.136a.879.879 0 100 1.758h14.062a.879.879 0 100-1.758z" fill="url(#paint3_linear)"/><path d="M6.89 31.992a1.35 1.35 0 001.348 1.348h6.094a1.35 1.35 0 001.348-1.348v-6.094a1.35 1.35 0 00-1.348-1.347H8.238a1.35 1.35 0 00-1.347 1.347v6.094zm1.758-5.683h5.274v5.273H8.648v-5.273z" fill="url(#paint4_linear)"/><path d="M33.2 25.957H19.136a.879.879 0 100 1.758h14.062a.879.879 0 100-1.758z" fill="url(#paint5_linear)"/><path d="M33.2 29.707H19.136a.879.879 0 100 1.758h14.062a.879.879 0 100-1.758z" fill="url(#paint6_linear)"/><path d="M6.89 43.36a1.35 1.35 0 001.348 1.347h6.094a1.35 1.35 0 001.348-1.348v-6.093a1.35 1.35 0 00-1.348-1.348H8.238a1.35 1.35 0 00-1.347 1.348v6.093zm1.758-5.684h5.274v5.273H8.648v-5.273z" fill="url(#paint7_linear)"/><path d="M33.2 37.324H19.136a.879.879 0 100 1.758h14.062a.879.879 0 100-1.758z" fill="url(#paint8_linear)"/><path d="M33.2 41.074H19.136a.879.879 0 100 1.758h14.062a.879.879 0 100-1.758z" fill="url(#paint9_linear)"/><path d="M28.746 4.16H12.574a2.933 2.933 0 00-2.93 2.93 2.933 2.933 0 002.93 2.93h16.172a2.933 2.933 0 002.93-2.93 2.933 2.933 0 00-2.93-2.93zm0 4.102H12.574a1.173 1.173 0 01-1.172-1.172c0-.646.526-1.172 1.172-1.172h16.172c.646 0 1.172.526 1.172 1.172 0 .646-.526 1.172-1.172 1.172z" fill="url(#paint10_linear)"/><defs><linearGradient id="paint5_linear" x1="26.168" y1="25.957" x2="26.168" y2="27.715" gradientUnits="userSpaceOnUse"><stop stop-color="#8888D3"/><stop offset="1" stop-color="#5E60A3"/></linearGradient><linearGradient id="paint0_linear" x1="24" y1="0" x2="24" y2="60" gradientUnits="userSpaceOnUse"><stop stop-color="#8888D3"/><stop offset="1" stop-color="#5E60A3"/></linearGradient><linearGradient id="paint2_linear" x1="26.168" y1="14.59" x2="26.168" y2="16.348" gradientUnits="userSpaceOnUse"><stop stop-color="#8888D3"/><stop offset="1" stop-color="#5E60A3"/></linearGradient><linearGradient id="paint3_linear" x1="26.168" y1="18.34" x2="26.168" y2="20.098" gradientUnits="userSpaceOnUse"><stop stop-color="#8888D3"/><stop offset="1" stop-color="#5E60A3"/></linearGradient><linearGradient id="paint4_linear" x1="11.285" y1="24.551" x2="11.285" y2="33.34" gradientUnits="userSpaceOnUse"><stop stop-color="#8888D3"/><stop offset="1" stop-color="#5E60A3"/></linearGradient><linearGradient id="paint1_linear" x1="12.34" y1="13.008" x2="12.34" y2="21.973" gradientUnits="userSpaceOnUse"><stop stop-color="#8888D3"/><stop offset="1" stop-color="#5E60A3"/></linearGradient><linearGradient id="paint6_linear" x1="26.168" y1="29.707" x2="26.168" y2="31.465" gradientUnits="userSpaceOnUse"><stop stop-color="#8888D3"/><stop offset="1" stop-color="#5E60A3"/></linearGradient><linearGradient id="paint7_linear" x1="11.285" y1="35.918" x2="11.285" y2="44.707" gradientUnits="userSpaceOnUse"><stop stop-color="#8888D3"/><stop offset="1" stop-color="#5E60A3"/></linearGradient><linearGradient id="paint8_linear" x1="26.168" y1="37.324" x2="26.168" y2="39.082" gradientUnits="userSpaceOnUse"><stop stop-color="#8888D3"/><stop offset="1" stop-color="#5E60A3"/></linearGradient><linearGradient id="paint9_linear" x1="26.168" y1="41.074" x2="26.168" y2="42.832" gradientUnits="userSpaceOnUse"><stop stop-color="#8888D3"/><stop offset="1" stop-color="#5E60A3"/></linearGradient><linearGradient id="paint10_linear" x1="20.66" y1="4.16" x2="20.66" y2="10.02" gradientUnits="userSpaceOnUse"><stop stop-color="#8888D3"/><stop offset="1" stop-color="#5E60A3"/></linearGradient></defs></svg>
